static/assets/img/icons/theme/communication/contact-1.svg

<svg height="24" viewBox="0 0 24 24" width="24" xmlns="http://www.w3.org/2000/svg"><g fill="none" fill-rule="evenodd"><path d="m0 0h24v24h-24z" opacity="0"/><g fill="#000"><circle cx="12" cy="12" opacity=".3" r="10"/><path d="m12 11c-1.1045695 0-2-.8954305-2-2s.8954305-2 2-2 2 .8954305 2 2-.8954305 2-2 2zm-4.99963795 5.4995035c.21533713-2.9829311 2.36736703-4.4995035 4.99038315-4.4995035 2.6599306 0 4.8453013 1.4332455 5.0080961 4.5.0064853.1221713 0 .5-.4173413.5h-9.1773321c-.13932781 0-.41553554-.3380125-.40380585-.5004965z" opacity=".3"/></g></g></svg>

<svg width="24px" height="24px" viewBox="0 0 24 24" version="1.1" xmlns="http://www.w3.org/2000/svg" xmlns:xlink="http://www.w3.org/1999/xlink">
    <title>Icon For Contact#1</title>
    <g stroke="none" stroke-width="1" fill="none" fill-rule="evenodd">
        <rect opacity="0" x="0" y="0" width="24" height="24"></rect>
        <circle fill="#000000" opacity="0.3" cx="12" cy="12" r="10"></circle>
        <path d="M12,11 C10.8954305,11 10,10.1045695 10,9 C10,7.8954305 10.8954305,7 12,7 C13.1045695,7 14,7.8954305 14,9 C14,10.1045695 13.1045695,11 12,11 Z M7.00036205,16.4995035 C7.21569918,13.5165724 9.36772908,12 11.9907452,12 C14.6506758,12 16.8360465,13.4332455 16.9988413,16.5 C17.0053266,16.6221713 16.9988413,17 16.5815,17 L7.4041679,17 C7.26484009,17 6.98863236,16.6619875 7.00036205,16.4995035 Z" fill="#000000" opacity="0.3"></path>
    </g>
</svg>
